X: 64
T: FAREWELL TO BALLYMONEY
B: O'Neill's 64
M: 3/4
L: 1/8
Z: Transcribed by John Chambers <jc@trillian.mit.edu>
N: "Slow and tenderly"
N: "Collected by F.O'Neill"
K:D
(DE) \
| F2 G2 ((3ABc) | d2 A2 (AG) | (F2 D2) .F2 | E2 D2 (de) |
|  (f2 e2) .d2 | (c2 A2) G2 | .A2 (d2 e2) | d4 (de) |
| (f2 e2 d2) | (c2 d2) cA | (G2 c2) .E2 | (D2 C2) DE |
| F2 G2 ((3ABc) | (d2 A2) AG | (F2 D2) .E2 | D4 ||


